img/icon-dribbble.svg

<svg width="16" height="16" viewBox="0 0 16 16" fill="none" xmlns="http://www.w3.org/2000/svg">
<g clip-path="url(#clip0_207_154)">
<path d="M8 16C3.59 16 0 12.41 0 8C0 3.59 3.59 0 8 0C12.41 0 16 3.59 16 8C16 12.41 12.41 16 8 16ZM14.7467 9.09467C14.5133 9.02133 12.6333 8.45933 10.4907 8.80267C11.384 11.2587 11.7487 13.2587 11.8187 13.6747C13.352 12.638 14.4427 10.9947 14.7487 9.09467H14.7467ZM10.67 14.3C10.568 13.7 10.17 11.612 9.21 9.12L9.166 9.13333C5.306 10.4767 3.926 13.15 3.806 13.4C4.95933 14.3053 6.41933 14.844 7.99933 14.844C8.946 14.844 9.846 14.6507 10.666 14.3013L10.67 14.3ZM2.92333 12.58C3.078 12.3133 4.95333 9.21 8.478 8.07C8.568 8.04 8.658 8.014 8.748 7.99C8.57467 7.6 8.388 7.212 8.19333 6.83C4.78 7.85 1.47067 7.80667 1.17067 7.8L1.168 8.008C1.168 9.76333 1.83333 11.366 2.924 12.578L2.92333 12.58ZM1.31 6.61C1.61667 6.61533 4.432 6.62733 7.628 5.778C6.496 3.766 5.27467 2.07267 5.09467 1.826C3.18267 2.726 1.75467 4.486 1.31067 6.606L1.31 6.61ZM6.4 1.368C6.588 1.62133 7.83 3.31067 8.948 5.368C11.378 4.458 12.408 3.07467 12.53 2.9C11.3233 1.82667 9.73667 1.176 8 1.176C7.45 1.176 6.91333 1.24267 6.4 1.366V1.368ZM13.29 3.69C13.1447 3.88333 12 5.352 9.474 6.38333C9.634 6.71 9.78733 7.04 9.92733 7.374C9.98067 7.494 10.0273 7.614 10.074 7.72733C12.3473 7.44067 14.6073 7.90067 14.834 7.94733C14.8207 6.334 14.2473 4.854 13.294 3.694L13.29 3.69Z" fill="#EA4C89"/>
</g>
<defs>
<clipPath id="clip0_207_154">
<rect width="16" height="16" fill="white"/>
</clipPath>
</defs>
</svg>

<svg width="16" height="16" fill="none" xmlns="http://www.w3.org/2000/svg"><g clip-path="url(#clip0_207_154)"><path d="M8 16c-4.41 0-8-3.59-8-8s3.59-8 8-8 8 3.59 8 8-3.59 8-8 8zm6.747-6.905c-.234-.074-2.114-.636-4.256-.292.893 2.456 1.258 4.456 1.328 4.872a6.854 6.854 0 0 0 2.93-4.58h-.002zM10.67 14.3c-.102-.6-.5-2.688-1.46-5.18l-.044.013c-3.86 1.344-5.24 4.017-5.36 4.267a6.774 6.774 0 0 0 4.193 1.444c.947 0 1.847-.193 2.667-.543l.004-.001zm-7.747-1.72c.155-.267 2.03-3.37 5.555-4.51.09-.03.18-.056.27-.08-.173-.39-.36-.778-.555-1.16-3.413 1.02-6.722.977-7.022.97l-.003.208c0 1.755.665 3.358 1.756 4.57v.002zM1.31 6.61c.307.005 3.122.017 6.318-.832a43.65 43.65 0 0 0-2.533-3.952 6.85 6.85 0 0 0-3.784 4.78l-.001.004zM6.4 1.368c.188.253 1.43 1.943 2.548 4 2.43-.91 3.46-2.293 3.582-2.468A6.793 6.793 0 0 0 8 1.176c-.55 0-1.087.067-1.6.19v.002zm6.89 2.322c-.145.193-1.29 1.662-3.816 2.693.16.327.313.657.453.991.054.12.1.24.147.353 2.273-.286 4.533.174 4.76.22a6.763 6.763 0 0 0-1.54-4.253l-.004-.004z" fill="#EA4C89"/></g><defs><clipPath id="clip0_207_154"><path fill="#fff" d="M0 0H16V16H0z"/></clipPath></defs></svg>
